assets/icons/display-layout-filled.svg

<?xml version="1.0" encoding="UTF-8" standalone="no"?>
<svg
   viewBox="0 0 24 24"
   height="24"
   id="svg7384"
   version="1.1"
   width="24"
   sodipodi:docname="display-layout-filled.svg"
   inkscape:version="1.2 (1:1.2.1+202207142221+cd75a1ee6d)"
   xmlns:inkscape="http://www.inkscape.org/namespaces/inkscape"
   xmlns:sodipodi="http://sodipodi.sourceforge.net/DTD/sodipodi-0.dtd"
   xmlns="http://www.w3.org/2000/svg"
   xmlns:svg="http://www.w3.org/2000/svg"
   xmlns:rdf="http://www.w3.org/1999/02/22-rdf-syntax-ns#"
   xmlns:cc="http://creativecommons.org/ns#"
   xmlns:dc="http://purl.org/dc/elements/1.1/">
  <sodipodi:namedview
     id="namedview24"
     pagecolor="#ffffff"
     bordercolor="#666666"
     borderopacity="1.0"
     inkscape:pageshadow="2"
     inkscape:pageopacity="0.0"
     inkscape:pagecheckerboard="0"
     showgrid="true"
     inkscape:zoom="32"
     inkscape:cx="13.21875"
     inkscape:cy="11.25"
     inkscape:window-width="1920"
     inkscape:window-height="1043"
     inkscape:window-x="0"
     inkscape:window-y="0"
     inkscape:window-maximized="1"
     inkscape:current-layer="svg7384"
     inkscape:snap-page="true"
     inkscape:snap-bbox="true"
     inkscape:bbox-paths="true"
     inkscape:bbox-nodes="true"
     inkscape:snap-bbox-midpoints="true"
     inkscape:snap-bbox-edge-midpoints="true"
     inkscape:object-paths="true"
     inkscape:snap-intersection-paths="true"
     inkscape:snap-smooth-nodes="true"
     inkscape:snap-midpoints="true"
     inkscape:snap-grids="true"
     inkscape:showpageshadow="2"
     inkscape:deskcolor="#d1d1d1">
    <inkscape:grid
       type="xygrid"
       id="grid829" />
    <inkscape:grid
       type="xygrid"
       id="grid886"
       dotted="true"
       spacingx="0.5"
       spacingy="0.5"
       empspacing="10" />
  </sodipodi:namedview>
  <metadata
     id="metadata20854">
    <rdf:RDF>
      <cc:Work
         rdf:about="">
        <dc:format>image/svg+xml</dc:format>
        <dc:type
           rdf:resource="http://purl.org/dc/dcmitype/StillImage" />
      </cc:Work>
    </rdf:RDF>
  </metadata>
  <defs
     id="defs7386">
    <linearGradient
       id="linearGradient5606"
       inkscape:swatch="solid">
      <stop
         id="stop5608"
         offset="0"
         style="stop-color:#000000;stop-opacity:1;" />
    </linearGradient>
    <linearGradient
       id="linearGradient4526"
       inkscape:swatch="solid">
      <stop
         id="stop4528"
         offset="0"
         style="stop-color:#ffffff;stop-opacity:1;" />
    </linearGradient>
    <linearGradient
       id="linearGradient3600-4"
       inkscape:swatch="gradient">
      <stop
         id="stop3602-7"
         offset="0"
         style="stop-color:#f4f4f4;stop-opacity:1" />
      <stop
         id="stop3604-6"
         offset="1"
         style="stop-color:#dbdbdb;stop-opacity:1" />
    </linearGradient>
  </defs>
  <path
     id="path861"
     style="color:#000000;fill:#808080;fill-opacity:1;-inkscape-stroke:none"
     d="M 19.212891 3 C 18.987242 2.9981376 18.749999 3.0019531 18.5 3.0019531 L 5.5 3.0019531 C 5.2500005 3.0019531 5.0127578 3.0000931 4.7871094 3.0019531 C 4.1101658 3.0075431 3.5365056 3.0501067 3.0273438 3.3046875 C 2.6879024 3.4744081 2.3973374 3.767122 2.2304688 4.1425781 C 2.063599 4.5180333 2 4.9602883 2 5.5019531 L 2 15.501953 C 2 16.043618 2.0636 16.485873 2.2304688 16.861328 C 2.3973374 17.236785 2.6879024 17.529497 3.0273438 17.699219 C 3.7062264 18.038658 4.500004 18.001953 5.5 18.001953 L 18.5 18.001953 C 19.499996 18.001953 20.293774 18.038661 20.972656 17.699219 C 21.312099 17.529497 21.602661 17.236785 21.769531 16.861328 C 21.936401 16.485873 22 16.043618 22 15.501953 L 22 5.5019531 C 22 4.9602883 21.9364 4.5180333 21.769531 4.1425781 C 21.602661 3.767122 21.312099 3.4744081 20.972656 3.3046875 C 20.463495 3.0501065 19.889835 3.0055873 19.212891 3 z M 4.3496094 4.0019531 L 19.650391 4.0019531 C 20.398287 4.0019531 21 4.5825378 21 5.3027344 L 21 15.701172 C 21 16.421368 20.398287 17.001953 19.650391 17.001953 L 4.3496094 17.001953 C 3.6017128 17.001953 3 16.421368 3 15.701172 L 3 5.3027344 C 3 4.5825368 3.6017128 4.0019531 4.3496094 4.0019531 z M 5.1992188 5.0019531 C 4.560679 5.0019531 4.0477563 5.4555214 4.0078125 6.03125 L 19.076172 15.970703 C 19.606523 15.856828 20 15.424374 20 14.902344 L 20 6.1015625 C 20 5.4921647 19.46558 5.0019531 18.800781 5.0019531 L 5.1992188 5.0019531 z M 4 7.2265625 L 4 14.902344 C 4 15.51174 4.534421 16.001953 5.1992188 16.001953 L 18.800781 16.001953 C 18.808154 16.001953 18.814925 16.00012 18.822266 16 L 17.300781 16 L 4 7.2265625 z M 5.5527344 10.001953 A 0.50005 0.50005 0 0 1 5.7773438 10.083984 L 11.777344 14.083984 A 0.50005 0.50005 0 0 1 11.5 15 L 5.5 15 A 0.50005 0.50005 0 0 1 5 14.5 L 5 10.5 A 0.50005 0.50005 0 0 1 5.2636719 10.058594 A 0.50005 0.50005 0 0 1 5.4335938 10.003906 A 0.50005 0.50005 0 0 1 5.5527344 10.001953 z M 6 11.433594 L 6 14 L 9.8476562 14 L 6 11.433594 z " />
  <path
     style="color:#000000;fill:#808080;fill-opacity:1"
     d="m 9,19 v 0.125 c 0,1.874992 -0.625005,1.875 -1.875,1.875 h -1.125 v 1 h 12 v -1 h -1.125 c -1.249995,0 -1.875,-8e-6 -1.875,-1.875 v -0.125 z"
     id="path790" />
</svg>

<svg height="24" width="24" xmlns="http://www.w3.org/2000/svg"><path style="color:#000;fill:gray;fill-opacity:1;-inkscape-stroke:none" d="M19.213 3c-.226-.002-.463.002-.713.002h-13c-.25 0-.487-.002-.713 0-.677.006-1.25.048-1.76.303-.34.17-.63.462-.797.838-.166.375-.23.817-.23 1.359v10c0 .542.064.984.23 1.36.167.375.458.667.797.837.68.34 1.473.303 2.473.303h13c1 0 1.794.037 2.473-.303.34-.17.63-.462.797-.838.166-.375.23-.817.23-1.359v-10c0-.542-.064-.984-.23-1.36a1.72 1.72 0 0 0-.797-.837c-.51-.255-1.083-.3-1.76-.305zM4.35 4.002h15.3c.748 0 1.35.58 1.35 1.3v10.4c0 .72-.602 1.3-1.35 1.3H4.35c-.748 0-1.35-.58-1.35-1.3v-10.4c0-.72.602-1.3 1.35-1.3zm.85 1c-.64 0-1.152.454-1.192 1.03l15.068 9.939c.53-.114.924-.547.924-1.069v-8.8c0-.61-.534-1.1-1.2-1.1H5.2zM4 7.227v7.675c0 .61.534 1.1 1.2 1.1h13.6l.022-.002h-1.521L4 7.227zm1.553 2.775a.5.5 0 0 1 .224.082l6 4A.5.5 0 0 1 11.5 15h-6a.5.5 0 0 1-.5-.5v-4a.5.5 0 0 1 .264-.441.5.5 0 0 1 .17-.055.5.5 0 0 1 .119-.002zM6 11.434V14h3.848L6 11.434z"/><path style="color:#000;fill:gray;fill-opacity:1" d="M9 19v.125C9 21 8.375 21 7.125 21H6v1h12v-1h-1.125C15.625 21 15 21 15 19.125V19z"/></svg>
